newicons/emoji_books.svg

<?xml version="1.0" encoding="UTF-8" standalone="no"?>
<svg
   version="1.2"
   viewBox="0 0 48 48"
   id="svg4"
   xmlns="http://www.w3.org/2000/svg"
   xmlns:svg="http://www.w3.org/2000/svg">
  <defs
     id="defs1" />
  <path
     d="m 8.1082074,14.262649 a 3.2993757,3.302158 0 0 0 -0.341486,6.365135 L 25.024032,25.665826 42.5,20.673864"
     fill="none"
     stroke="#ffffff"
     stroke-linecap="round"
     stroke-linejoin="round"
     stroke-width="1"
     id="path1"
     style="stroke-width:1;stroke-dasharray:none" />
  <path
     d="m 8.1082074,20.755668 a 3.2993757,3.302158 0 0 0 -0.341486,6.365135 L 25.024032,32.158845 42.5,27.166882"
     fill="none"
     stroke="#ffffff"
     stroke-linecap="round"
     stroke-linejoin="round"
     stroke-width="1"
     id="path2"
     style="stroke-width:1;stroke-dasharray:none" />
  <path
     d="m 8.1082074,27.319307 a 3.2993757,3.302158 0 0 0 -0.341486,6.365135 L 25.024032,38.722485 42.5,33.730523"
     fill="none"
     stroke="#ffffff"
     stroke-linecap="round"
     stroke-linejoin="round"
     stroke-width="1"
     id="path3"
     style="stroke-width:1;stroke-dasharray:none" />
  <path
     d="M 25.023507,9.2775171 42.4997,14.233005 25.023507,19.225267 8.0812124,14.251017 25.023507,9.2775171 v 0"
     fill="none"
     stroke="#ffffff"
     stroke-linecap="round"
     stroke-linejoin="round"
     stroke-width="1"
     id="path4"
     style="stroke-width:1;stroke-dasharray:none" />
  <path
     style="fill:none;stroke:#ffffff;stroke-width:1;stroke-linecap:round;stroke-linejoin:round;stroke-dashoffset:0.5;stroke-dasharray:none"
     d="M 42.4997,14.233005 42.5,33.730523"
     id="path5" />
</svg>

<?xml version="1.0" encoding="UTF-8"?><svg id="a" xmlns="http://www.w3.org/2000/svg" viewBox="0 0 48 48"><defs><style>.g{fill:none;stroke:#fff;stroke-linecap:round;stroke-linejoin:round;}</style></defs><path id="b" class="g" d="M8.1088,14.2628c-1.7817.382-2.9167,2.1373-2.5349,3.9206.2455,1.1469,1.0804,2.0773,2.1935,2.4444l17.257,5.038,17.4756-4.9919"/><path id="c" class="g" d="M8.1088,20.7557c-1.7817.382-2.9167,2.1373-2.5349,3.9206.2455,1.1469,1.0804,2.0773,2.1935,2.4444l17.257,5.0379,17.4756-4.9919"/><path id="d" class="g" d="M8.1088,27.3192c-1.7817.382-2.9167,2.1373-2.5349,3.9206.2455,1.1469,1.0804,2.0773,2.1935,2.4444l17.257,5.038,17.4756-4.9919"/><path id="e" class="g" d="M25.0238,9.2778l17.4759,4.9554-17.4759,4.9922-16.942-4.9742,16.942-4.9734h0"/><path id="f" class="g" d="M42.4997,14.2332l.0003,19.4972"/></svg>
